X:1
L:1/8
Q:3/8=110
M:6/8
K:G
 D | G>AG GBd | ceg g2 f/e/ | d>cB A>GA | B3- B2 A | G>AG GBd | ceg g2 f/e/ | dgB A>GA | G3- G2 :: 
 d | dBg g2 d | dBg g2 f/e/ | d>cB A>GA | (B3- B2) B/A/ | G>AG GBd | c/B/c/d/e/f/ | g>fe | 
 dgB d/^c/e/d/=c/A/ | G3- G2 :|
